X:27
T: Eleisonlied
N: D0029
O: Europa, Mitteleuropa, Lothringen, Weiler
N: Im Original mit der Bemerkung "ohne Taktakzente" ueberschrieben,
N: aber mit Taktstrichen notiert; Inzipit = entfernte Variante
R: Legenden - Lied
M: 4/4
L: 1/8
K: F#
EEEE | 4=A2F2 | =G2F2E2- | E4
EE | 62 | =A22F4- | F3
FFFFF | 4F2 | F2E2=D2- | D2
E=G | F2CE | =D2C2 | 4

@@@ Tune index: 2549
